poi/svg/2610.svg

<?xml version="1.0" encoding="UTF-8" standalone="no"?>
<svg
   xmlns:dc="http://purl.org/dc/elements/1.1/"
   xmlns:cc="http://creativecommons.org/ns#"
   xmlns:rdf="http://www.w3.org/1999/02/22-rdf-syntax-ns#"
   xmlns:svg="http://www.w3.org/2000/svg"
   xmlns="http://www.w3.org/2000/svg"
   xmlns:sodipodi="http://sodipodi.sourceforge.net/DTD/sodipodi-0.dtd"
   xmlns:inkscape="http://www.inkscape.org/namespaces/inkscape"
   inkscape:version="1.0 (4035a4fb49, 2020-05-01)"
   sodipodi:docname="2610.svg"
   id="svg20"
   version="1.2"
   viewBox="0 0 42.519639 42.519639"
   height="14.999999mm"
   width="14.999999mm">
  <metadata
     id="metadata24">
    <rdf:RDF>
      <cc:Work
         rdf:about="">
        <dc:format>image/svg+xml</dc:format>
        <dc:type
           rdf:resource="http://purl.org/dc/dcmitype/StillImage" />
        <dc:title>Qt SVG Document</dc:title>
      </cc:Work>
    </rdf:RDF>
  </metadata>
  <sodipodi:namedview
     inkscape:current-layer="svg20"
     inkscape:window-maximized="0"
     inkscape:window-y="0"
     inkscape:window-x="0"
     inkscape:cy="28.346482"
     inkscape:cx="28.346482"
     inkscape:zoom="5.8410537"
     showgrid="false"
     id="namedview22"
     inkscape:window-height="480"
     inkscape:window-width="1034"
     inkscape:pageshadow="2"
     inkscape:pageopacity="0"
     guidetolerance="10"
     gridtolerance="10"
     objecttolerance="10"
     borderopacity="1"
     bordercolor="#666666"
     pagecolor="#ffffff" />
  <title
     id="title2">Qt SVG Document</title>
  <desc
     id="desc4">Generated with Qt</desc>
  <defs
     id="defs6" />
  <g
     transform="translate(5.25984,5.25984)"
     id="g18"
     stroke-linejoin="bevel"
     stroke-linecap="square"
     fill-rule="evenodd"
     stroke-width="1"
     stroke="#000000"
     fill="none">
    <g
       id="g10"
       font-style="normal"
       font-weight="400"
       font-size="7.8px"
       font-family="'MS Shell Dlg 2'"
       stroke="none"
       fill-opacity="1"
       fill="#6fa56c">
      <path
         id="path8"
         d="M 37.2598,16 C 37.2598,27.7415 27.7415,37.2598 16,37.2598 4.25851,37.2598 -5.25984,27.7415 -5.25984,16 -5.25984,4.25851 4.25851,-5.25984 16,-5.25984 27.7415,-5.25984 37.2598,4.25851 37.2598,16"
         fill-rule="evenodd"
         vector-effect="non-scaling-stroke" />
    </g>
    <g
       id="g14"
       font-style="normal"
       font-weight="400"
       font-size="7.8px"
       font-family="'MS Shell Dlg 2'"
       transform="translate(16,12.5984)"
       stroke="none"
       fill-opacity="0.94902"
       fill="#ffffff">
      <path
         id="path12"
         d="m 7.52881,15.1958 c 0.34993,0 0.63688,0.1225 0.86084,0.3674 0.22396,0.245 0.33594,0.5284 0.33594,0.8504 0,0.3359 -0.11198,0.6194 -0.33594,0.8503 -0.22396,0.231 -0.51091,0.3465 -0.86084,0.3465 -0.30794,0 -0.58439,-0.1155 -0.82935,-0.3465 -0.24495,-0.2309 -0.36743,-0.5144 -0.36743,-0.8503 0,-0.322 0.12248,-0.6054 0.36743,-0.8504 0.24496,-0.2449 0.52141,-0.3674 0.82935,-0.3674 m 0,1.7217 c 0.34993,0 0.5249,-0.168 0.5249,-0.5039 0,-0.154 -0.05249,-0.28 -0.15747,-0.378 -0.10498,-0.0979 -0.22746,-0.1469 -0.36743,-0.1469 -0.13998,0 -0.25895,0.049 -0.35693,0.1469 -0.09799,0.098 -0.14698,0.224 -0.14698,0.378 0,0.1399 0.04899,0.2589 0.14698,0.3569 0.09798,0.098 0.21695,0.147 0.35693,0.147 M -6.53857,-5.52734 c -0.33594,0 -0.61939,-0.11548 -0.85035,-0.34644 -0.23095,-0.23096 -0.34643,-0.5144 -0.34643,-0.85034 0,-0.32194 0.11548,-0.60539 0.34643,-0.85034 0.23096,-0.24496 0.51441,-0.36743 0.85035,-0.36743 0.32194,0 0.60538,0.12247 0.85034,0.36743 0.24495,0.24495 0.36743,0.5284 0.36743,0.85034 0,0.33594 -0.12248,0.61938 -0.36743,0.85034 -0.24496,0.23096 -0.5284,0.34644 -0.85034,0.34644 m 0,-1.72168 c -0.13998,0 -0.25896,0.04899 -0.35694,0.14697 -0.09798,0.09798 -0.14697,0.22396 -0.14697,0.37793 0,0.33594 0.16797,0.50391 0.50391,0.50391 0.15397,0 0.27994,-0.049 0.37793,-0.14698 0.09798,-0.09798 0.14697,-0.21696 0.14697,-0.35693 0,-0.15397 -0.04899,-0.27995 -0.14697,-0.37793 -0.09799,-0.09798 -0.22396,-0.14697 -0.37793,-0.14697 M -6.74854,13.0962 c -0.43391,0 -0.80135,0.1505 -1.10229,0.4514 -0.30094,0.301 -0.45142,0.6684 -0.45142,1.1023 0,0.3079 0.08749,0.5844 0.26246,0.8293 0.17496,0.245 0.38842,0.4375 0.64038,0.5774 0.04199,0.266 0.14697,0.5249 0.31494,0.7769 -0.5459,-0.056 -0.99732,-0.2904 -1.35425,-0.7034 -0.35693,-0.4129 -0.5354,-0.9063 -0.5354,-1.4802 0,-0.6299 0.21346,-1.1618 0.64038,-1.5957 0.42692,-0.4339 0.95532,-0.6509 1.5852,-0.6509 0.13998,0 0.32894,0.028 0.5669,0.084 l -0.29395,0.6509 c -0.06998,0 -0.11897,-0.007 -0.14697,-0.021 -0.02799,-0.014 -0.06999,-0.021 -0.12598,-0.021 M 2.67871,3.79492 C 3.67253,3.26302 4.56486,2.45817 5.35571,1.38037 6.14657,0.302572 6.81494,-0.824219 7.36084,-2 7.90674,-3.17578 8.33716,-4.28507 8.6521,-5.32788 8.96704,-6.37069 9.15251,-7.12305 9.2085,-7.58496 h 0.73486 c 0,0.11198 -0.05949,0.43392 -0.17847,0.96582 -0.11898,0.5319 -0.29744,1.17578 -0.5354,1.93164 C 8.99154,-3.93164 8.6766,-3.10229 8.28467,-2.19946 7.89274,-1.29663 7.42733,-0.407796 6.88843,0.467041 6.34953,1.34188 5.72664,2.14673 5.01978,2.88159 4.31291,3.61646 3.53255,4.19385 2.67871,4.61377 V 3.79492 m -3.485351,-4.97607 c -0.517899,0 -0.962319,-0.17847 -1.333249,-0.5354 -0.37093,-0.35694 -0.5564,-0.80835 -0.5564,-1.35425 0,-0.5179 0.18547,-0.96232 0.5564,-1.33325 0.37093,-0.37093 0.81535,-0.5564 1.333249,-0.5564 0.517904,0 0.962321,0.18547 1.333252,0.5564 0.370931,0.37093 0.556399,0.81535 0.556399,1.33325 0,0.5459 -0.185468,0.99731 -0.556399,1.35425 -0.370931,0.35693 -0.815348,0.5354 -1.333252,0.5354 M 3.91748,7.93115 0.474121,9.52686 c -0.223958,0.08398 -0.48291006,0.12597 -0.776855,0.12597 -0.139974,0 -0.279948,0 -0.419922,0 -0.139974,0 -0.286944,-0.02799 -0.440914,-0.08398 l -3.04444,7.01265 c -0.13997,0.308 -0.37443,0.5144 -0.70337,0.6194 -0.32894,0.105 -0.66837,0.0525 -1.01831,-0.1574 -0.30794,-0.196 -0.5354,-0.4725 -0.68237,-0.8294 -0.14697,-0.3569 -0.15047,-0.6964 -0.0105,-1.0183 l 3.7583,-8.54541 H 1.90186 V 5.83154 H -2.86426 V 1.98926 L -5.63574,3.08105 C -6.16764,3.30501 -6.60856,3.17204 -6.9585,2.68213 l -2.41455,-3.69531 c -0.13997,-0.22396 -0.18196,-0.48641 -0.12597,-0.78736 0.05599,-0.30094 0.20296,-0.5284 0.44091,-0.68237 0.25196,-0.16797 0.52841,-0.21696 0.82935,-0.14697 0.30094,0.06998 0.5214,0.22396 0.66138,0.46191 l 1.93164,2.96045 3.80029,-1.511718 c 0.16797,-0.05599 0.30794,-0.069987 0.41992,-0.041992 L 0.789063,-0.803223 4.40039,-6.59814 c 0.13997,-0.23796 0.35343,-0.38493 0.64038,-0.44092 0.28695,-0.05599 0.5424,-0.007 0.76636,0.14697 0.26595,0.13997 0.43392,0.36043 0.50391,0.66138 0.06998,0.30094 0.02099,0.56339 -0.14698,0.78735 L 1.90186,1.40137 V 5.83154 L 4.31641,4.69775 C 4.62435,4.55778 4.94979,4.58927 5.29272,4.79224 5.63566,4.9952 5.84912,5.26465 5.93311,5.60059 L 7.10889,10.3457 C 7.19287,10.6816 7.14738,10.9931 6.97241,11.28 6.79744,11.567 6.54199,11.7524 6.20605,11.8364 5.85612,11.9344 5.53068,11.8959 5.22974,11.7209 4.92879,11.546 4.75033,11.2835 4.69434,10.9336 L 3.91748,7.93115 M 1.08301,10.0308 1.90186,9.65283 V 18.2192 H 1.08301 v -8.1884 m 5.29101,2.4985 c 0.05599,-0.028 0.11198,-0.056 0.16797,-0.084 0.05599,-0.028 0.11198,-0.056 0.16797,-0.084 0,0.4619 -0.15747,0.8504 -0.47241,1.1653 -0.31494,0.315 -0.70337,0.4724 -1.16528,0.4724 -0.44792,0 -0.82935,-0.1574 -1.14429,-0.4724 -0.31494,-0.3149 -0.47241,-0.7034 -0.47241,-1.1653 0,-0.5179 0.18196,-0.9168 0.54589,-1.1967 0.05599,0.1119 0.10499,0.2169 0.14698,0.3149 0.04199,0.098 0.11198,0.203 0.20996,0.3149 -0.15397,0.154 -0.23096,0.343 -0.23096,0.5669 0,0.252 0.09448,0.4724 0.28345,0.6614 0.18896,0.189 0.40942,0.2835 0.66138,0.2835 0.23795,0 0.43391,-0.063 0.58789,-0.189 0.15397,-0.126 0.25895,-0.308 0.31494,-0.5459 0.18196,0 0.31494,-0.014 0.39892,-0.042 M -8.07129,2.17822 c -0.40592,0.33594 -0.82585,0.50391 -1.25976,0.50391 -0.47592,0 -0.89585,-0.17847 -1.25975,-0.5354 -0.364,-0.35694 -0.5459,-0.78036 -0.5459,-1.270265 0,-0.391927 0.1085,-0.731364 0.3254,-1.018311 0.217,-0.286946 0.4864,-0.507405 0.8084,-0.661377 0.02797,0.027995 0.04196,0.05599 0.04196,0.083985 0,0.027995 0.014,0.062988 0.04199,0.10498 l 0.29395,0.461914 c -0.5459,0.1399742 -0.8188,0.48291 -0.8188,1.028809 0,0.321935 0.1084,0.587895 0.3254,0.797855 0.21695,0.20996 0.4794,0.31494 0.78735,0.31494 0.34993,0 0.62288,-0.13998 0.81884,-0.41992 l 0.44092,0.60888 M 3.49756,-6.47217 c 0,-0.08398 -0.007,-0.16097 -0.021,-0.23096 -0.01399,-0.06998 -0.02099,-0.15397 -0.02099,-0.25195 0,-0.5319 0.19246,-0.99381 0.57739,-1.38574 0.38493,-0.39193 0.85034,-0.58789 1.39624,-0.58789 0.5459,0 1.01131,0.19596 1.39624,0.58789 0.38493,0.39193 0.57739,0.85384 0.57739,1.38574 0,0.43392 -0.13997,0.83985 -0.41992,1.21778 0.02799,-0.20997 0.02799,-0.42693 0,-0.65088 C 6.91292,-6.58415 6.82194,-6.80111 6.70996,-7.03906 6.68197,-7.34701 6.54549,-7.62345 6.30054,-7.86841 6.05558,-8.11336 5.76514,-8.23584 5.4292,-8.23584 c -0.29395,0 -0.5389,0.08049 -0.73486,0.24146 -0.19597,0.16097 -0.35694,0.35343 -0.48291,0.57739 -0.11198,0.08398 -0.25196,0.23795 -0.41993,0.46191 l -0.29394,0.48291"
         fill-rule="evenodd"
         vector-effect="none" />
    </g>
    <g
       id="g16"
       font-style="normal"
       font-weight="400"
       font-size="7.8px"
       font-family="'MS Shell Dlg 2'"
       stroke="none"
       fill-opacity="1"
       fill="#6fa56c" />
  </g>
</svg>

<?xml version="1.0" encoding="UTF-8" standalone="no"?>
<svg width="11.2889mm" height="11.2889mm"
 viewBox="0 0 32 32"
 xmlns="http://www.w3.org/2000/svg" xmlns:xlink="http://www.w3.org/1999/xlink"  version="1.2" baseProfile="tiny">
<title>Qt SVG Document</title>
<desc>Generated with Qt</desc>
<defs>
</defs>
<g fill="none" stroke="black" stroke-width="1" fill-rule="evenodd" stroke-linecap="square" stroke-linejoin="bevel" >

<g fill="#6fa56c" fill-opacity="1" stroke="none" transform="matrix(1,0,0,1,0,0)"
font-family="MS Shell Dlg 2" font-size="7.8" font-weight="400" font-style="normal" 
>
<path vector-effect="non-scaling-stroke" fill-rule="evenodd" d="M37.2598,16 C37.2598,27.7415 27.7415,37.2598 16,37.2598 C4.25851,37.2598 -5.25984,27.7415 -5.25984,16 C-5.25984,4.25851 4.25851,-5.25984 16,-5.25984 C27.7415,-5.25984 37.2598,4.25851 37.2598,16 "/>
</g>

<g fill="#ffffff" fill-opacity="0.94902" stroke="none" transform="matrix(1,0,0,1,16,12.5984)"
font-family="MS Shell Dlg 2" font-size="7.8" font-weight="400" font-style="normal" 
>
<path vector-effect="none" fill-rule="evenodd" d="M7.52881,15.1958 C7.87874,15.1958 8.16569,15.3183 8.38965,15.5632 C8.61361,15.8082 8.72559,16.0916 8.72559,16.4136 C8.72559,16.7495 8.61361,17.033 8.38965,17.2639 C8.16569,17.4949 7.87874,17.6104 7.52881,17.6104 C7.22087,17.6104 6.94442,17.4949 6.69946,17.2639 C6.45451,17.033 6.33203,16.7495 6.33203,16.4136 C6.33203,16.0916 6.45451,15.8082 6.69946,15.5632 C6.94442,15.3183 7.22087,15.1958 7.52881,15.1958 M7.52881,16.9175 C7.87874,16.9175 8.05371,16.7495 8.05371,16.4136 C8.05371,16.2596 8.00122,16.1336 7.89624,16.0356 C7.79126,15.9377 7.66878,15.8887 7.52881,15.8887 C7.38883,15.8887 7.26986,15.9377 7.17188,16.0356 C7.07389,16.1336 7.0249,16.2596 7.0249,16.4136 C7.0249,16.5535 7.07389,16.6725 7.17188,16.7705 C7.26986,16.8685 7.38883,16.9175 7.52881,16.9175 M-6.53857,-5.52734 C-6.87451,-5.52734 -7.15796,-5.64282 -7.38892,-5.87378 C-7.61987,-6.10474 -7.73535,-6.38818 -7.73535,-6.72412 C-7.73535,-7.04606 -7.61987,-7.32951 -7.38892,-7.57446 C-7.15796,-7.81942 -6.87451,-7.94189 -6.53857,-7.94189 C-6.21663,-7.94189 -5.93319,-7.81942 -5.68823,-7.57446 C-5.44328,-7.32951 -5.3208,-7.04606 -5.3208,-6.72412 C-5.3208,-6.38818 -5.44328,-6.10474 -5.68823,-5.87378 C-5.93319,-5.64282 -6.21663,-5.52734 -6.53857,-5.52734 M-6.53857,-7.24902 C-6.67855,-7.24902 -6.79753,-7.20003 -6.89551,-7.10205 C-6.99349,-7.00407 -7.04248,-6.87809 -7.04248,-6.72412 C-7.04248,-6.38818 -6.87451,-6.22021 -6.53857,-6.22021 C-6.3846,-6.22021 -6.25863,-6.26921 -6.16064,-6.36719 C-6.06266,-6.46517 -6.01367,-6.58415 -6.01367,-6.72412 C-6.01367,-6.87809 -6.06266,-7.00407 -6.16064,-7.10205 C-6.25863,-7.20003 -6.3846,-7.24902 -6.53857,-7.24902 M-6.74854,13.0962 C-7.18245,13.0962 -7.54989,13.2467 -7.85083,13.5476 C-8.15177,13.8486 -8.30225,14.216 -8.30225,14.6499 C-8.30225,14.9578 -8.21476,15.2343 -8.03979,15.4792 C-7.86483,15.7242 -7.65137,15.9167 -7.39941,16.0566 C-7.35742,16.3226 -7.25244,16.5815 -7.08447,16.8335 C-7.63037,16.7775 -8.08179,16.5431 -8.43872,16.1301 C-8.79565,15.7172 -8.97412,15.2238 -8.97412,14.6499 C-8.97412,14.02 -8.76066,13.4881 -8.33374,13.0542 C-7.90682,12.6203 -7.37842,12.4033 -6.74854,12.4033 C-6.60856,12.4033 -6.4196,12.4313 -6.18164,12.4873 L-6.47559,13.1382 C-6.54557,13.1382 -6.59456,13.1312 -6.62256,13.1172 C-6.65055,13.1032 -6.69255,13.0962 -6.74854,13.0962 M2.67871,3.79492 C3.67253,3.26302 4.56486,2.45817 5.35571,1.38037 C6.14657,0.302572 6.81494,-0.824219 7.36084,-2 C7.90674,-3.17578 8.33716,-4.28507 8.6521,-5.32788 C8.96704,-6.37069 9.15251,-7.12305 9.2085,-7.58496 L9.94336,-7.58496 C9.94336,-7.47298 9.88387,-7.15104 9.76489,-6.61914 C9.64591,-6.08724 9.46745,-5.44336 9.22949,-4.6875 C8.99154,-3.93164 8.6766,-3.10229 8.28467,-2.19946 C7.89274,-1.29663 7.42733,-0.407796 6.88843,0.467041 C6.34953,1.34188 5.72664,2.14673 5.01978,2.88159 C4.31291,3.61646 3.53255,4.19385 2.67871,4.61377 L2.67871,3.79492 M-0.806641,-1.18115 C-1.32454,-1.18115 -1.76896,-1.35962 -2.13989,-1.71655 C-2.51082,-2.07349 -2.69629,-2.5249 -2.69629,-3.0708 C-2.69629,-3.5887 -2.51082,-4.03312 -2.13989,-4.40405 C-1.76896,-4.77498 -1.32454,-4.96045 -0.806641,-4.96045 C-0.288737,-4.96045 0.15568,-4.77498 0.526611,-4.40405 C0.897542,-4.03312 1.08301,-3.5887 1.08301,-3.0708 C1.08301,-2.5249 0.897542,-2.07349 0.526611,-1.71655 C0.15568,-1.35962 -0.288737,-1.18115 -0.806641,-1.18115 M3.91748,7.93115 L0.474121,9.52686 C0.250163,9.61084 -0.00878906,9.65283 -0.302734,9.65283 C-0.442708,9.65283 -0.582682,9.65283 -0.722656,9.65283 C-0.86263,9.65283 -1.0096,9.62484 -1.16357,9.56885 L-4.20801,16.5815 C-4.34798,16.8895 -4.58244,17.0959 -4.91138,17.2009 C-5.24032,17.3059 -5.57975,17.2534 -5.92969,17.0435 C-6.23763,16.8475 -6.46509,16.571 -6.61206,16.2141 C-6.75903,15.8572 -6.76253,15.5177 -6.62256,15.1958 L-2.86426,6.65039 L1.90186,6.65039 L1.90186,5.83154 L-2.86426,5.83154 L-2.86426,1.98926 L-5.63574,3.08105 C-6.16764,3.30501 -6.60856,3.17204 -6.9585,2.68213 L-9.37305,-1.01318 C-9.51302,-1.23714 -9.55501,-1.49959 -9.49902,-1.80054 C-9.44303,-2.10148 -9.29606,-2.32894 -9.05811,-2.48291 C-8.80615,-2.65088 -8.5297,-2.69987 -8.22876,-2.62988 C-7.92782,-2.5599 -7.70736,-2.40592 -7.56738,-2.16797 L-5.63574,0.79248 L-1.83545,-0.719238 C-1.66748,-0.775228 -1.52751,-0.789225 -1.41553,-0.76123 L0.789063,-0.803223 L4.40039,-6.59814 C4.54036,-6.8361 4.75382,-6.98307 5.04077,-7.03906 C5.32772,-7.09505 5.58317,-7.04606 5.80713,-6.89209 C6.07308,-6.75212 6.24105,-6.53166 6.31104,-6.23071 C6.38102,-5.92977 6.33203,-5.66732 6.16406,-5.44336 L1.90186,1.40137 L1.90186,5.83154 L4.31641,4.69775 C4.62435,4.55778 4.94979,4.58927 5.29272,4.79224 C5.63566,4.9952 5.84912,5.26465 5.93311,5.60059 L7.10889,10.3457 C7.19287,10.6816 7.14738,10.9931 6.97241,11.28 C6.79744,11.567 6.54199,11.7524 6.20605,11.8364 C5.85612,11.9344 5.53068,11.8959 5.22974,11.7209 C4.92879,11.546 4.75033,11.2835 4.69434,10.9336 L3.91748,7.93115 M1.08301,10.0308 L1.90186,9.65283 L1.90186,18.2192 L1.08301,18.2192 L1.08301,10.0308 M6.37402,12.5293 C6.43001,12.5013 6.486,12.4733 6.54199,12.4453 C6.59798,12.4173 6.65397,12.3893 6.70996,12.3613 C6.70996,12.8232 6.55249,13.2117 6.23755,13.5266 C5.92261,13.8416 5.53418,13.999 5.07227,13.999 C4.62435,13.999 4.24292,13.8416 3.92798,13.5266 C3.61304,13.2117 3.45557,12.8232 3.45557,12.3613 C3.45557,11.8434 3.63753,11.4445 4.00146,11.1646 C4.05745,11.2765 4.10645,11.3815 4.14844,11.4795 C4.19043,11.5775 4.26042,11.6825 4.3584,11.7944 C4.20443,11.9484 4.12744,12.1374 4.12744,12.3613 C4.12744,12.6133 4.22192,12.8337 4.41089,13.0227 C4.59985,13.2117 4.82031,13.3062 5.07227,13.3062 C5.31022,13.3062 5.50618,13.2432 5.66016,13.1172 C5.81413,12.9912 5.91911,12.8092 5.9751,12.5713 C6.15706,12.5713 6.29004,12.5573 6.37402,12.5293 M-8.07129,2.17822 C-8.47721,2.51416 -8.89714,2.68213 -9.33105,2.68213 C-9.80697,2.68213 -10.2269,2.50366 -10.5908,2.14673 C-10.9548,1.78979 -11.1367,1.36637 -11.1367,0.876465 C-11.1367,0.484538 -11.0282,0.145101 -10.8113,-0.141846 C-10.5943,-0.428792 -10.3249,-0.649251 -10.0029,-0.803223 C-9.97493,-0.775228 -9.96094,-0.747233 -9.96094,-0.719238 C-9.96094,-0.691243 -9.94694,-0.65625 -9.91895,-0.614258 L-9.625,-0.152344 C-10.1709,-0.0123698 -10.4438,0.330566 -10.4438,0.876465 C-10.4438,1.1984 -10.3354,1.46436 -10.1184,1.67432 C-9.90145,1.88428 -9.639,1.98926 -9.33105,1.98926 C-8.98112,1.98926 -8.70817,1.84928 -8.51221,1.56934 L-8.07129,2.17822 M3.49756,-6.47217 C3.49756,-6.55615 3.49056,-6.63314 3.47656,-6.70313 C3.46257,-6.77311 3.45557,-6.8571 3.45557,-6.95508 C3.45557,-7.48698 3.64803,-7.94889 4.03296,-8.34082 C4.41789,-8.73275 4.8833,-8.92871 5.4292,-8.92871 C5.9751,-8.92871 6.44051,-8.73275 6.82544,-8.34082 C7.21037,-7.94889 7.40283,-7.48698 7.40283,-6.95508 C7.40283,-6.52116 7.26286,-6.11523 6.98291,-5.7373 C7.0109,-5.94727 7.0109,-6.16423 6.98291,-6.38818 C6.91292,-6.58415 6.82194,-6.80111 6.70996,-7.03906 C6.68197,-7.34701 6.54549,-7.62345 6.30054,-7.86841 C6.05558,-8.11336 5.76514,-8.23584 5.4292,-8.23584 C5.13525,-8.23584 4.8903,-8.15535 4.69434,-7.99438 C4.49837,-7.83341 4.3374,-7.64095 4.21143,-7.41699 C4.09945,-7.33301 3.95947,-7.17904 3.7915,-6.95508 L3.49756,-6.47217"/>
</g>

<g fill="#6fa56c" fill-opacity="1" stroke="none" transform="matrix(1,0,0,1,0,0)"
font-family="MS Shell Dlg 2" font-size="7.8" font-weight="400" font-style="normal" 
>
</g>
</g>
</svg>
